X:2
T:Vincent Campbell's Mazurka #2
T:Phroinsias Ui Mhaonaigh's Mazurka #2
R:mazurka
L:1/8
M:3/4
K:D % Transposed from G
de|f2 fe dB|AF A2 FA|BG B2 GB|AF A2 de|f2 fe dB|AF A2 FA|B2 c2 A2|d4:|
de|f2 fg af|gf g2 Ac|e2 e2 ag|fe f2 Ad|f2 f2 af|gf g2 Ac|e2 eg fe|d4:|
</abc>
